src/topics/icons/apptentive.svg

<svg height="256" preserveAspectRatio="xMidYMid" viewBox="0 0 256 256" width="256" xmlns="http://www.w3.org/2000/svg"><path d="m192.898581 238.351187c-19.028741 11.215147-41.212329 17.648813-64.898581 17.648813-70.692448 0-128-57.307552-128-128s57.307552-128 128-128 128 57.307552 128 128c0 32.645689-12.221303 62.43694-32.338301 85.048146l16.728545 39.829903z" fill="#df2637"/><path d="m194.809756 136.117073-64.312195 71.804878-68.6829269-61.814634c-6.2439024-6.868293-9.9902439-14.985366-9.9902439-24.97561-.6243902-10.614634 3.1219513-20.604878 11.2390244-29.3463411 8.1170732-8.7414635 17.4829269-13.1121952 28.097561-14.3609757 10.6146344-1.2487804 19.9804874 1.2487805 28.0975614 7.492683 25.6 19.9804878 31.219512 38.7121948 16.858536 56.8195118-3.746341-17.482926-11.863414-29.970731-23.726829-38.087805-11.863415-8.7414629-21.8536586-7.4926824-31.2195123 2.497561-9.3658537 10.614635-9.9902439 19.356098-2.497561 27.473171l48.7024393 44.331708 49.326829-54.946342c3.746341-4.995122 4.995122-10.614634 4.370732-16.858537-.624391-7.4926825-4.370732-13.7365849-9.990244-18.7317069-6.243903-5.6195121-12.487805-8.7414634-19.980488-8.1170731-6.243902 0-11.239024 1.8731707-13.736585 5.6195122l-17.482927-14.9853659c8.117073-8.1170732 18.731707-12.4878049 31.843902-12.4878049 12.487805-.6243902 24.35122 3.7463415 34.341464 13.1121952 8.741463 8.1170731 14.360975 19.3560975 16.234146 33.7170734 2.497561 14.360975-1.24878 24.351219-7.492683 31.843902z" fill="#fff"/></svg>

<?xml version="1.0" encoding="UTF-8" standalone="no"?>
<svg width="256px" height="256px" viewBox="0 0 256 256" version="1.1" xmlns="http://www.w3.org/2000/svg" xmlns:xlink="http://www.w3.org/1999/xlink" preserveAspectRatio="xMidYMid">
	<g>
		<path d="M192.898581,238.351187 C173.86984,249.566334 151.686252,256 128,256 C57.307552,256 0,198.692448 0,128 C0,57.307552 57.307552,0 128,0 C198.692448,0 256,57.307552 256,128 C256,160.645689 243.778697,190.43694 223.661699,213.048146 L240.390244,252.878049 L192.898581,238.351187 Z" fill="#DF2637"></path>
		<path d="M194.809756,136.117073 L130.497561,207.921951 L61.8146341,146.107317 C55.5707317,139.239024 51.8243902,131.121951 51.8243902,121.131707 C51.2,110.517073 54.9463415,100.526829 63.0634146,91.7853659 C71.1804878,83.0439024 80.5463415,78.6731707 91.1609756,77.4243902 C101.77561,76.1756098 111.141463,78.6731707 119.258537,84.9170732 C144.858537,104.897561 150.478049,123.629268 136.117073,141.736585 C132.370732,124.253659 124.253659,111.765854 112.390244,103.64878 C100.526829,94.9073171 90.5365854,96.1560976 81.1707317,106.146341 C71.804878,116.760976 71.1804878,125.502439 78.6731707,133.619512 L127.37561,177.95122 L176.702439,123.004878 C180.44878,118.009756 181.697561,112.390244 181.073171,106.146341 C180.44878,98.6536585 176.702439,92.4097561 171.082927,87.4146341 C164.839024,81.795122 158.595122,78.6731707 151.102439,79.297561 C144.858537,79.297561 139.863415,81.1707317 137.365854,84.9170732 L119.882927,69.9317073 C128,61.8146341 138.614634,57.4439024 151.726829,57.4439024 C164.214634,56.8195122 176.078049,61.1902439 186.068293,70.5560976 C194.809756,78.6731707 200.429268,89.9121951 202.302439,104.273171 C204.8,118.634146 201.053659,128.62439 194.809756,136.117073 L194.809756,136.117073 Z" fill="#FFFFFF"></path>
	</g>
</svg>
